resources/icons/20px/array-floating-point.svg

<svg width="20" height="20" viewBox="0 0 20 20" fill="none" xmlns="http://www.w3.org/2000/svg">
<path d="M19.9916 1.10422C19.9194 0.48255 19.391 0 18.75 0H15C14.5293 0 14 0.358955 14 1C14 1.64104 14.5 2 15.0229 2H18.0229L18 18H15C14.5 18 14 18.359 14 19C14 19.6904 14.5 20 15 20H18.75L18.8958 19.9916C19.5175 19.9194 20 19.391 20 18.75V1.25L19.9916 1.10422Z" fill="#5F6B7C"/>
<path d="M6 1C6 0.309644 5.5 0 5 0H1.25L1.10422 0.00840966C0.48255 0.080616 0 0.608955 0 1.25V18.75L0.00840966 18.8958C0.080616 19.5175 0.608955 20 1.25 20H5C5.5 20 6 19.641 6 19C6 18.359 5.5 18 5 18H2V2H5C5.5 2 6 1.64104 6 1Z" fill="#5F6B7C"/>
<path d="M5.4339 7.3246C5.21247 7.36368 4.98452 7.38321 4.75006 7.38321V8.26243H6.43035V13.0884H7.65148V6.25H6.74296C6.70388 6.45841 6.61921 6.63425 6.48896 6.77753C6.36522 6.92081 6.21217 7.03804 6.02981 7.12922C5.85397 7.2204 5.65533 7.28552 5.4339 7.3246Z" fill="#5F6B7C"/>
<path fill-rule="evenodd" clip-rule="evenodd" d="M14.3271 6.58642C14.0325 6.36702 13.6501 6.25732 13.1799 6.25732C12.7098 6.25732 12.3243 6.36702 12.0234 6.58642C11.7288 6.79955 11.4969 7.07536 11.3276 7.41386C11.1646 7.74609 11.0518 8.1128 10.9891 8.51398C10.9327 8.91517 10.9045 9.30382 10.9045 9.67993C10.9045 10.056 10.9327 10.4447 10.9891 10.8459C11.0518 11.2471 11.1646 11.6169 11.3276 11.9554C11.4969 12.2876 11.7288 12.5634 12.0234 12.7828C12.3243 12.996 12.7098 13.1025 13.1799 13.1025C13.6501 13.1025 14.0325 12.996 14.3271 12.7828C14.628 12.5634 14.8599 12.2876 15.0229 11.9554C15.1921 11.6169 15.305 11.2471 15.3614 10.8459C15.4241 10.4447 15.4554 10.056 15.4554 9.67993C15.4554 9.30382 15.4241 8.91517 15.3614 8.51398C15.305 8.1128 15.1921 7.74609 15.0229 7.41386C14.8599 7.07536 14.628 6.79955 14.3271 6.58642ZM13.7629 12.0118C13.6062 12.1434 13.4119 12.2093 13.1799 12.2093C12.9417 12.2093 12.7443 12.1434 12.5876 12.0118C12.4371 11.8739 12.3149 11.6921 12.2209 11.4664C12.1331 11.2345 12.0704 10.965 12.0328 10.6578C11.9952 10.3507 11.9764 10.0247 11.9764 9.67993C11.9764 9.33516 11.9952 9.01233 12.0328 8.71144C12.0704 8.40429 12.1331 8.13474 12.2209 7.90281C12.3149 7.67087 12.4371 7.48909 12.5876 7.35745C12.7443 7.21954 12.9417 7.15059 13.1799 7.15059C13.4119 7.15059 13.6062 7.21954 13.7629 7.35745C13.9196 7.48909 14.0419 7.67087 14.1296 7.90281C14.2237 8.13474 14.2895 8.40429 14.3271 8.71144C14.3647 9.01233 14.3835 9.33516 14.3835 9.67993C14.3835 10.0247 14.3647 10.3507 14.3271 10.6578C14.2895 10.965 14.2237 11.2345 14.1296 11.4664C14.0419 11.6921 13.9196 11.8739 13.7629 12.0118Z" fill="#5F6B7C"/>
<path d="M8.85309 11.8066H10.211V13.1255H8.85309V11.8066Z" fill="#5F6B7C"/>
</svg>

<svg xmlns="http://www.w3.org/2000/svg" viewBox="0 0 20 20">
  <path d="M19.992 1.104A1.25 1.25 0 0 0 18.75 0H15c-.47 0-1 .359-1 1s.5 1 1.023 1h3L18 18h-3c-.5 0-1 .359-1 1 0 .69.5 1 1 1h3.75l.146-.008A1.25 1.25 0 0 0 20 18.75V1.25zM6 1c0-.69-.5-1-1-1H1.25l-.146.008A1.25 1.25 0 0 0 0 1.25v17.5l.008.146A1.25 1.25 0 0 0 1.25 20H5c.5 0 1-.359 1-1s-.5-1-1-1H2V2h3c.5 0 1-.359 1-1"/>
  <path d="M5.434 7.325q-.333.058-.684.058v.88h1.68v4.825h1.221V6.25h-.908q-.06.312-.254.528-.186.215-.46.351a2 2 0 0 1-.595.196M14.327 6.586q-.441-.329-1.147-.329-.705 0-1.157.33a2.24 2.24 0 0 0-.695.827 3.8 3.8 0 0 0-.339 1.1q-.085.602-.085 1.166t.085 1.166q.095.6.339 1.11.253.498.695.827.452.32 1.157.32t1.147-.32q.451-.33.696-.828.254-.507.338-1.11a7.6 7.6 0 0 0 .094-1.165 7.6 7.6 0 0 0-.094-1.166 3.5 3.5 0 0 0-.338-1.1 2.1 2.1 0 0 0-.696-.828m-.564 5.426a.88.88 0 0 1-.583.197.9.9 0 0 1-.592-.197 1.5 1.5 0 0 1-.367-.546 3.5 3.5 0 0 1-.188-.808 8 8 0 0 1-.057-.978q0-.518.057-.969.056-.46.188-.808.14-.348.367-.546a.86.86 0 0 1 .592-.206.85.85 0 0 1 .583.206q.235.198.367.546.141.348.197.808.056.452.056.969t-.056.978a3.2 3.2 0 0 1-.197.808q-.132.339-.367.546M8.853 11.807h1.358v1.319H8.853z"/>
</svg>
